public/icons/github.svg

<svg width="128" height="128" viewBox="0 0 128 128" fill="none" xmlns="http://www.w3.org/2000/svg">
<path fill-rule="evenodd" clip-rule="evenodd" d="M64.0001 5.10303C30.6531 5.10303 3.61206 32.138 3.61206 65.491C3.61206 92.173 20.9151 114.808 44.9091 122.794C47.9261 123.354 49.0341 121.484 49.0341 119.889C49.0341 118.449 48.9781 113.692 48.9521 108.646C32.1521 112.299 28.6071 101.521 28.6071 101.521C25.8601 94.541 21.9021 92.685 21.9021 92.685C16.4221 88.937 22.3151 89.015 22.3151 89.015C28.3781 89.44 31.5721 95.238 31.5721 95.238C36.9581 104.468 45.6991 101.8 49.1451 100.258C49.6871 96.355 51.2521 93.69 52.9791 92.182C39.5661 90.657 25.4651 85.478 25.4651 62.339C25.4651 55.746 27.8251 50.359 31.6881 46.129C31.0601 44.609 28.9931 38.467 32.2721 30.149C32.2721 30.149 37.3421 28.526 48.8821 36.339C53.7001 35 58.8671 34.327 64.0001 34.304C69.1301 34.327 74.3001 34.998 79.1271 36.337C90.6531 28.524 95.7171 30.147 95.7171 30.147C99.0041 38.464 96.9371 44.607 96.3101 46.127C100.182 50.357 102.525 55.744 102.525 62.337C102.525 85.531 88.3981 90.637 74.9511 92.133C77.1181 94.007 79.0481 97.683 79.0481 103.316C79.0481 111.396 78.9781 117.899 78.9781 119.888C78.9781 121.495 80.0661 123.378 83.1261 122.785C107.106 114.791 124.389 92.163 124.389 65.491C124.388 32.14 97.3501 5.10403 64.0001 5.10403V5.10303Z" fill="#181616"/>
<path d="M26.4841 91.8061C26.3511 92.1061 25.8791 92.196 25.4491 91.991C25.0091 91.795 24.7641 91.3861 24.9061 91.0851C25.0361 90.7751 25.5091 90.6901 25.9461 90.8971C26.3861 91.0941 26.6361 91.5071 26.4831 91.8071L26.4841 91.8061ZM28.9301 94.5351C28.6431 94.8021 28.0801 94.678 27.6981 94.255C27.3021 93.835 27.2281 93.2721 27.5211 93.0011C27.8191 92.7351 28.3651 92.861 28.7611 93.281C29.1551 93.707 29.2331 94.2651 28.9311 94.5361L28.9301 94.5351ZM31.3121 98.0121C30.9421 98.2701 30.3361 98.029 29.9621 97.492C29.5921 96.954 29.5921 96.3091 29.9721 96.0521C30.3451 95.7941 30.9421 96.027 31.3221 96.559C31.6901 97.104 31.6901 97.7491 31.3121 98.0111V98.0121ZM34.5731 101.373C34.2431 101.738 33.5371 101.64 33.0211 101.143C32.4941 100.656 32.3471 99.963 32.6781 99.599C33.0141 99.233 33.7231 99.3351 34.2421 99.8291C34.7691 100.315 34.9281 101.009 34.5751 101.372L34.5731 101.373ZM39.0731 103.324C38.9261 103.797 38.2481 104.012 37.5631 103.81C36.8801 103.603 36.4331 103.05 36.5731 102.572C36.7131 102.095 37.3961 101.872 38.0851 102.087C38.7681 102.293 39.2151 102.843 39.0731 103.324ZM44.0161 103.685C44.0331 104.183 43.4531 104.595 42.7361 104.605C42.0131 104.622 41.4281 104.218 41.4211 103.728C41.4211 103.225 41.9891 102.818 42.7111 102.804C43.4281 102.791 44.0171 103.191 44.0171 103.684L44.0161 103.685ZM48.6141 102.903C48.7001 103.388 48.2011 103.887 47.4881 104.02C46.7881 104.15 46.1381 103.848 46.0481 103.367C45.9621 102.869 46.4701 102.37 47.1701 102.241C47.8841 102.118 48.5241 102.411 48.6141 102.904V102.903Z" fill="#181616"/>
</svg>

<svg xmlns="http://www.w3.org/2000/svg" fill="none" style="background-color:#fff" viewBox="0 0 128 128"><path fill="#181616" fill-rule="evenodd" d="M64 5.103c-33.347 0-60.388 27.035-60.388 60.388 0 26.682 17.303 49.317 41.297 57.303 3.017.56 4.125-1.31 4.125-2.905 0-1.44-.056-6.197-.082-11.243-16.8 3.653-20.345-7.125-20.345-7.125-2.747-6.98-6.705-8.836-6.705-8.836-5.48-3.748.413-3.67.413-3.67 6.063.425 9.257 6.223 9.257 6.223 5.386 9.23 14.127 6.562 17.573 5.02.542-3.903 2.107-6.568 3.834-8.076-13.413-1.525-27.514-6.704-27.514-29.843 0-6.593 2.36-11.98 6.223-16.21-.628-1.52-2.695-7.662.584-15.98 0 0 5.07-1.623 16.61 6.19C53.7 35 58.867 34.327 64 34.304c5.13.023 10.3.694 15.127 2.033 11.526-7.813 16.59-6.19 16.59-6.19 3.287 8.317 1.22 14.46.593 15.98 3.872 4.23 6.215 9.617 6.215 16.21 0 23.194-14.127 28.3-27.574 29.796 2.167 1.874 4.097 5.55 4.097 11.183 0 8.08-.07 14.583-.07 16.572 0 1.607 1.088 3.49 4.148 2.897 23.98-7.994 41.263-30.622 41.263-57.294C124.388 32.14 97.35 5.104 64 5.104v-.001Z" clip-rule="evenodd"/><path fill="#181616" d="M26.484 91.806c-.133.3-.605.39-1.035.185-.44-.196-.685-.605-.543-.906.13-.31.603-.395 1.04-.188.44.197.69.61.537.91h.001Zm2.446 2.73c-.287.266-.85.142-1.232-.281-.396-.42-.47-.983-.177-1.254.298-.266.844-.14 1.24.28.394.426.472.984.17 1.255Zm2.382 3.476c-.37.258-.976.017-1.35-.52-.37-.538-.37-1.183.01-1.44.373-.258.97-.025 1.35.507.368.545.368 1.19-.01 1.452v.001Zm3.261 3.361c-.33.365-1.036.267-1.552-.23-.527-.487-.674-1.18-.343-1.544.336-.366 1.045-.264 1.564.23.527.486.686 1.18.333 1.543l-.002.001Zm4.5 1.951c-.147.473-.825.688-1.51.486-.683-.207-1.13-.76-.99-1.238.14-.477.823-.7 1.512-.485.683.206 1.13.756.988 1.237Zm4.943.361c.017.498-.563.91-1.28.92-.723.017-1.308-.387-1.315-.877 0-.503.568-.91 1.29-.924.717-.013 1.306.387 1.306.88v.001Zm4.598-.782c.086.485-.413.984-1.126 1.117-.7.13-1.35-.172-1.44-.653-.086-.498.422-.997 1.122-1.126.714-.123 1.354.17 1.444.663v-.001Z"/></svg>
